X:2263
T:Bucks of Oranmore
R:Reel
Z:O'Neill's
M:C|
L:1/8
Q:1/4=200
K:A
dB|:(3ABA FA A2dB|(3ABA FA BE (3EDE|1 A2FA A2Bd|(3efg fd ecdB:|2 DEFG AFAB|defd ecdB
|:AD (3FED ADBD|ADFA BE{G} (3EDE|1 AD (3FED AFAB|(3efg fd ecdB:|2 DEFG AFAB|defd efge
|:(3aba fd eddf|~a2fd eB (3BAB|a2fd edef|(3gag fd eBBg:|
|:(3faf df  (3efe df|(3faf df eB{d} (3BAB|1  (3faf df edef|
~g2fd eB{d} (3BAB:|2 fa{b} (3a^ga b2af|defd edBd
|:Adfd edfd|Adfd edBd|1 Adfd edef|(3fag fd edBd:|2 fa{b}af b2af|d2fd edBd|]
